dist/assets/img/cards/img.svg

<svg width="260" height="100" viewBox="0 0 260 100" fill="none" xmlns="http://www.w3.org/2000/svg"><path d="M0 3.39A3.39 3.39 0 013.39 0h253.22A3.39 3.39 0 01260 3.39v93.22a3.39 3.39 0 01-3.39 3.39H3.39A3.39 3.39 0 010 96.61V3.39z" fill="#fff"/><g filter="url(#filter0_d)"><mask id="path-3-inside-1" fill="#fff"><rect x="28.77" y="33.75" width="50.104" height="32.5" rx="1.625"/></mask><rect x="28.77" y="33.75" width="50.104" height="32.5" rx="1.625" fill="#fff"/><rect x="28.77" y="33.75" width="50.104" height="32.5" rx="1.625" stroke="#333A4A" stroke-width="4" mask="url(#path-3-inside-1)"/></g><path d="M76.843 54.063l-6.65-6.392a1.372 1.372 0 00-1.895 0l-9.77 9.45-4.411-4.267a1.372 1.372 0 00-1.895 0L39.604 64.22h37.24V54.063z" fill="#1ABF7E"/><circle cx="44.344" cy="45.261" fill="#FA0" r="4.74"/><path d="M100.17 55.5V42.9h2.7v7.29l-.18 1.53h.18L108 42.9h3.33v12.6h-2.7v-7.29l.18-1.53h-.18l-5.13 8.82h-3.33zm12.529-2.97h2.52c.072.24.186.438.342.594.36.384.876.576 1.548.576.516 0 .9-.09 1.152-.27a.843.843 0 00.378-.72c0-.336-.114-.582-.342-.738-.228-.168-.624-.252-1.188-.252h-1.17v-1.8h1.08c.96 0 1.44-.33 1.44-.99 0-.252-.132-.462-.396-.63-.252-.18-.63-.27-1.134-.27-.588 0-1.014.168-1.278.504a1.116 1.116 0 00-.252.486h-2.52a4.07 4.07 0 01.738-1.476c.804-.996 1.968-1.494 3.492-1.494 1.236 0 2.19.252 2.862.756.672.504 1.008 1.122 1.008 1.854 0 .684-.27 1.2-.81 1.548-.216.156-.486.27-.81.342v.09c.348.096.648.234.9.414.6.456.9 1.068.9 1.836 0 .828-.336 1.518-1.008 2.07-.672.54-1.686.81-3.042.81-1.644 0-2.874-.54-3.69-1.62a4.302 4.302 0 01-.72-1.62zm10.721 1.836c-.96-.948-1.44-2.1-1.44-3.456 0-1.356.48-2.502 1.44-3.438.96-.948 2.16-1.422 3.6-1.422 1.428 0 2.622.474 3.582 1.422.972.936 1.458 2.082 1.458 3.438 0 1.356-.486 2.508-1.458 3.456-.96.936-2.154 1.404-3.582 1.404-1.44 0-2.64-.468-3.6-1.404zm1.872-5.4c-.468.504-.702 1.152-.702 1.944s.234 1.44.702 1.944a2.265 2.265 0 001.728.756c.684 0 1.26-.252 1.728-.756.468-.504.702-1.152.702-1.944s-.234-1.44-.702-1.944a2.265 2.265 0 00-1.728-.756c-.684 0-1.26.252-1.728.756zm7.694 1.314c0-4.92 2.04-7.38 6.12-7.38h2.61v2.16h-2.34c-1.236 0-2.178.288-2.826.864-.648.564-.996 1.356-1.044 2.376h.09c.144-.204.36-.414.648-.63.612-.42 1.326-.63 2.142-.63 1.188 0 2.172.402 2.952 1.206.792.792 1.188 1.8 1.188 3.024 0 1.284-.444 2.358-1.332 3.222-.876.852-2.022 1.278-3.438 1.278-1.38 0-2.52-.498-3.42-1.494-.9-.996-1.35-2.328-1.35-3.996zm2.61.99c0 .708.198 1.278.594 1.71.396.42.918.63 1.566.63s1.17-.21 1.566-.63c.396-.432.594-1.002.594-1.71 0-.684-.198-1.23-.594-1.638-.396-.408-.918-.612-1.566-.612s-1.17.204-1.566.612c-.396.408-.594.954-.594 1.638zm8.206 7.65v-12.6h2.52v1.17h.09c.192-.252.426-.492.702-.72a3.57 3.57 0 012.178-.72c1.2 0 2.202.45 3.006 1.35.816.888 1.224 2.058 1.224 3.51s-.408 2.628-1.224 3.528c-.804.888-1.806 1.332-3.006 1.332a3.57 3.57 0 01-2.178-.72 4.394 4.394 0 01-.702-.72h-.09v4.59h-2.52zm3.168-9.99c-.432.468-.648 1.128-.648 1.98 0 .852.216 1.518.648 1.998.432.468.996.702 1.692.702.66 0 1.2-.24 1.62-.72.42-.48.63-1.14.63-1.98 0-.84-.21-1.5-.63-1.98-.42-.48-.96-.72-1.62-.72-.696 0-1.26.24-1.692.72zm8.677 5.508c-.804-.9-1.206-2.076-1.206-3.528s.402-2.622 1.206-3.51c.816-.9 1.824-1.35 3.024-1.35.804 0 1.53.24 2.178.72.276.228.51.468.702.72h.09v-1.17h2.52v9.18h-2.52v-1.17h-.09a4.394 4.394 0 01-.702.72 3.57 3.57 0 01-2.178.72c-1.2 0-2.208-.444-3.024-1.332zm2.034-5.508c-.42.48-.63 1.14-.63 1.98 0 .84.21 1.5.63 1.98.42.48.96.72 1.62.72.696 0 1.26-.234 1.692-.702.432-.48.648-1.146.648-1.998 0-.852-.216-1.512-.648-1.98-.432-.48-.996-.72-1.692-.72-.66 0-1.2.24-1.62.72zm7.22 6.57l3.06-4.95-2.79-4.23h2.79l2.25 3.42h.99v-3.42h2.52v3.42h.99l2.25-3.42h2.79l-2.79 4.23 3.06 4.95h-2.88l-2.16-3.6h-1.26v3.6h-2.52v-3.6h-1.26l-2.16 3.6h-2.88zm16.391-1.134c-.948-.948-1.422-2.1-1.422-3.456 0-1.356.474-2.502 1.422-3.438.96-.948 2.136-1.422 3.528-1.422 1.416 0 2.58.468 3.492 1.404.912.936 1.368 2.088 1.368 3.456v.54h-7.2c.096.6.366 1.11.81 1.53.444.42.954.63 1.53.63.636 0 1.182-.18 1.638-.54.18-.156.324-.336.432-.54h2.7a4.858 4.858 0 01-.9 1.62c-.96 1.08-2.25 1.62-3.87 1.62-1.392 0-2.568-.468-3.528-1.404zm1.278-4.446h4.41a2.038 2.038 0 00-.738-1.206c-.384-.336-.858-.504-1.422-.504s-1.044.162-1.44.486a2.428 2.428 0 00-.81 1.224zm8.472 5.58v-9.18h2.52v3.42h3.87v-3.42h2.52v9.18h-2.52v-3.6h-3.87v3.6h-2.52zm10.738 0v-9.18h2.52v3.96l-.09 1.62h.18l3.69-5.58h2.7v9.18h-2.52v-3.96l.09-1.62h-.18l-3.69 5.58h-2.7zm11.707-1.134c-.948-.948-1.422-2.1-1.422-3.456 0-1.356.474-2.502 1.422-3.438.96-.948 2.136-1.422 3.528-1.422 1.416 0 2.58.468 3.492 1.404.912.936 1.368 2.088 1.368 3.456v.54h-7.2c.096.6.366 1.11.81 1.53.444.42.954.63 1.53.63.636 0 1.182-.18 1.638-.54.18-.156.324-.336.432-.54h2.7a4.858 4.858 0 01-.9 1.62c-.96 1.08-2.25 1.62-3.87 1.62-1.392 0-2.568-.468-3.528-1.404zm1.278-4.446h4.41a2.038 2.038 0 00-.738-1.206c-.384-.336-.858-.504-1.422-.504s-1.044.162-1.44.486a2.428 2.428 0 00-.81 1.224zM3.39 2h253.22v-4H3.39v4zM258 3.39v93.22h4V3.39h-4zM256.61 98H3.39v4h253.22v-4zM2 96.61V3.39h-4v93.22h4zM3.39 98A1.39 1.39 0 012 96.61h-4A5.39 5.39 0 003.39 102v-4zM258 96.61a1.39 1.39 0 01-1.39 1.39v4a5.39 5.39 0 005.39-5.39h-4zM256.61 2c.768 0 1.39.622 1.39 1.39h4A5.39 5.39 0 00256.61-2v4zM3.39-2A5.39 5.39 0 00-2 3.39h4C2 2.622 2.622 2 3.39 2v-4z" fill="#333A4A"/><defs><filter id="filter0_d" x="28.77" y="33.75" width="53.354" height="35.75" filterUnits="userSpaceOnUse" color-interpolation-filters="sRGB"><feFlood flood-opacity="0" result="BackgroundImageFix"/><feColorMatrix in="SourceAlpha" values="0 0 0 0 0 0 0 0 0 0 0 0 0 0 0 0 0 0 127 0" result="hardAlpha"/><feOffset dx="3.25" dy="3.25"/><feColorMatrix values="0 0 0 0 0.2 0 0 0 0 0.227451 0 0 0 0 0.290196 0 0 0 1 0"/><feBlend in2="BackgroundImageFix" result="effect1_dropShadow"/><feBlend in="SourceGraphic" in2="effect1_dropShadow" result="shape"/></filter></defs></svg>

<svg width="260" height="100" viewBox="0 0 260 100" fill="none" xmlns="http://www.w3.org/2000/svg">
<path d="M0 3.38953C0 1.51754 1.51755 0 3.38953 0H256.61C258.482 0 260 1.51755 260 3.38953V96.6105C260 98.4825 258.482 100 256.61 100H3.38952C1.51753 100 0 98.4825 0 96.6105V3.38953Z" fill="white"/>
<g filter="url(#filter0_d)">
<mask id="path-3-inside-1" fill="white">
<rect x="28.7705" y="33.75" width="50.1042" height="32.5" rx="1.625"/>
</mask>
<rect x="28.7705" y="33.75" width="50.1042" height="32.5" rx="1.625" fill="white"/>
<rect x="28.7705" y="33.75" width="50.1042" height="32.5" rx="1.625" stroke="#333A4A" stroke-width="4" mask="url(#path-3-inside-1)"/>
</g>
<path d="M76.8434 54.0625L70.1929 47.6711C69.6698 47.1651 68.8215 47.1651 68.2983 47.6712L58.5281 57.1211L54.1166 52.8543C53.5934 52.3482 52.7452 52.3482 52.222 52.8543L39.6039 64.2187H76.8434V54.0625Z" fill="#1ABF7E"/>
<ellipse cx="44.3441" cy="45.2605" rx="4.73958" ry="4.73958" fill="#FFAA00"/>
<path d="M100.17 55.5V42.9H102.87V50.19L102.69 51.72H102.87L108 42.9H111.33V55.5H108.63V48.21L108.81 46.68H108.63L103.5 55.5H100.17ZM112.699 52.53H115.219C115.291 52.77 115.405 52.968 115.561 53.124C115.921 53.508 116.437 53.7 117.109 53.7C117.625 53.7 118.009 53.61 118.261 53.43C118.513 53.25 118.639 53.01 118.639 52.71C118.639 52.374 118.525 52.128 118.297 51.972C118.069 51.804 117.673 51.72 117.109 51.72H115.939V49.92H117.019C117.979 49.92 118.459 49.59 118.459 48.93C118.459 48.678 118.327 48.468 118.063 48.3C117.811 48.12 117.433 48.03 116.929 48.03C116.341 48.03 115.915 48.198 115.651 48.534C115.519 48.69 115.435 48.852 115.399 49.02H112.879C113.023 48.48 113.269 47.988 113.617 47.544C114.421 46.548 115.585 46.05 117.109 46.05C118.345 46.05 119.299 46.302 119.971 46.806C120.643 47.31 120.979 47.928 120.979 48.66C120.979 49.344 120.709 49.86 120.169 50.208C119.953 50.364 119.683 50.478 119.359 50.55V50.64C119.707 50.736 120.007 50.874 120.259 51.054C120.859 51.51 121.159 52.122 121.159 52.89C121.159 53.718 120.823 54.408 120.151 54.96C119.479 55.5 118.465 55.77 117.109 55.77C115.465 55.77 114.235 55.23 113.419 54.15C113.071 53.67 112.831 53.13 112.699 52.53ZM123.42 54.366C122.46 53.418 121.98 52.266 121.98 50.91C121.98 49.554 122.46 48.408 123.42 47.472C124.38 46.524 125.58 46.05 127.02 46.05C128.448 46.05 129.642 46.524 130.602 47.472C131.574 48.408 132.06 49.554 132.06 50.91C132.06 52.266 131.574 53.418 130.602 54.366C129.642 55.302 128.448 55.77 127.02 55.77C125.58 55.77 124.38 55.302 123.42 54.366ZM125.292 48.966C124.824 49.47 124.59 50.118 124.59 50.91C124.59 51.702 124.824 52.35 125.292 52.854C125.76 53.358 126.336 53.61 127.02 53.61C127.704 53.61 128.28 53.358 128.748 52.854C129.216 52.35 129.45 51.702 129.45 50.91C129.45 50.118 129.216 49.47 128.748 48.966C128.28 48.462 127.704 48.21 127.02 48.21C126.336 48.21 125.76 48.462 125.292 48.966ZM132.986 50.28C132.986 45.36 135.026 42.9 139.106 42.9H141.716V45.06H139.376C138.14 45.06 137.198 45.348 136.55 45.924C135.902 46.488 135.554 47.28 135.506 48.3H135.596C135.74 48.096 135.956 47.886 136.244 47.67C136.856 47.25 137.57 47.04 138.386 47.04C139.574 47.04 140.558 47.442 141.338 48.246C142.13 49.038 142.526 50.046 142.526 51.27C142.526 52.554 142.082 53.628 141.194 54.492C140.318 55.344 139.172 55.77 137.756 55.77C136.376 55.77 135.236 55.272 134.336 54.276C133.436 53.28 132.986 51.948 132.986 50.28ZM135.596 51.27C135.596 51.978 135.794 52.548 136.19 52.98C136.586 53.4 137.108 53.61 137.756 53.61C138.404 53.61 138.926 53.4 139.322 52.98C139.718 52.548 139.916 51.978 139.916 51.27C139.916 50.586 139.718 50.04 139.322 49.632C138.926 49.224 138.404 49.02 137.756 49.02C137.108 49.02 136.586 49.224 136.19 49.632C135.794 50.04 135.596 50.586 135.596 51.27ZM143.802 58.92V46.32H146.322V47.49H146.412C146.604 47.238 146.838 46.998 147.114 46.77C147.762 46.29 148.488 46.05 149.292 46.05C150.492 46.05 151.494 46.5 152.298 47.4C153.114 48.288 153.522 49.458 153.522 50.91C153.522 52.362 153.114 53.538 152.298 54.438C151.494 55.326 150.492 55.77 149.292 55.77C148.488 55.77 147.762 55.53 147.114 55.05C146.838 54.822 146.604 54.582 146.412 54.33H146.322V58.92H143.802ZM146.97 48.93C146.538 49.398 146.322 50.058 146.322 50.91C146.322 51.762 146.538 52.428 146.97 52.908C147.402 53.376 147.966 53.61 148.662 53.61C149.322 53.61 149.862 53.37 150.282 52.89C150.702 52.41 150.912 51.75 150.912 50.91C150.912 50.07 150.702 49.41 150.282 48.93C149.862 48.45 149.322 48.21 148.662 48.21C147.966 48.21 147.402 48.45 146.97 48.93ZM155.647 54.438C154.843 53.538 154.441 52.362 154.441 50.91C154.441 49.458 154.843 48.288 155.647 47.4C156.463 46.5 157.471 46.05 158.671 46.05C159.475 46.05 160.201 46.29 160.849 46.77C161.125 46.998 161.359 47.238 161.551 47.49H161.641V46.32H164.161V55.5H161.641V54.33H161.551C161.359 54.582 161.125 54.822 160.849 55.05C160.201 55.53 159.475 55.77 158.671 55.77C157.471 55.77 156.463 55.326 155.647 54.438ZM157.681 48.93C157.261 49.41 157.051 50.07 157.051 50.91C157.051 51.75 157.261 52.41 157.681 52.89C158.101 53.37 158.641 53.61 159.301 53.61C159.997 53.61 160.561 53.376 160.993 52.908C161.425 52.428 161.641 51.762 161.641 50.91C161.641 50.058 161.425 49.398 160.993 48.93C160.561 48.45 159.997 48.21 159.301 48.21C158.641 48.21 158.101 48.45 157.681 48.93ZM164.901 55.5L167.961 50.55L165.171 46.32H167.961L170.211 49.74H171.201V46.32H173.721V49.74H174.711L176.961 46.32H179.751L176.961 50.55L180.021 55.5H177.141L174.981 51.9H173.721V55.5H171.201V51.9H169.941L167.781 55.5H164.901ZM181.292 54.366C180.344 53.418 179.87 52.266 179.87 50.91C179.87 49.554 180.344 48.408 181.292 47.472C182.252 46.524 183.428 46.05 184.82 46.05C186.236 46.05 187.4 46.518 188.312 47.454C189.224 48.39 189.68 49.542 189.68 50.91V51.45H182.48C182.576 52.05 182.846 52.56 183.29 52.98C183.734 53.4 184.244 53.61 184.82 53.61C185.456 53.61 186.002 53.43 186.458 53.07C186.638 52.914 186.782 52.734 186.89 52.53H189.59C189.386 53.142 189.086 53.682 188.69 54.15C187.73 55.23 186.44 55.77 184.82 55.77C183.428 55.77 182.252 55.302 181.292 54.366ZM182.57 49.92H186.98C186.884 49.44 186.638 49.038 186.242 48.714C185.858 48.378 185.384 48.21 184.82 48.21C184.256 48.21 183.776 48.372 183.38 48.696C182.984 49.02 182.714 49.428 182.57 49.92ZM191.042 55.5V46.32H193.562V49.74H197.432V46.32H199.952V55.5H197.432V51.9H193.562V55.5H191.042ZM201.78 55.5V46.32H204.3V50.28L204.21 51.9H204.39L208.08 46.32H210.78V55.5H208.26V51.54L208.35 49.92H208.17L204.48 55.5H201.78ZM213.487 54.366C212.539 53.418 212.065 52.266 212.065 50.91C212.065 49.554 212.539 48.408 213.487 47.472C214.447 46.524 215.623 46.05 217.015 46.05C218.431 46.05 219.595 46.518 220.507 47.454C221.419 48.39 221.875 49.542 221.875 50.91V51.45H214.675C214.771 52.05 215.041 52.56 215.485 52.98C215.929 53.4 216.439 53.61 217.015 53.61C217.651 53.61 218.197 53.43 218.653 53.07C218.833 52.914 218.977 52.734 219.085 52.53H221.785C221.581 53.142 221.281 53.682 220.885 54.15C219.925 55.23 218.635 55.77 217.015 55.77C215.623 55.77 214.447 55.302 213.487 54.366ZM214.765 49.92H219.175C219.079 49.44 218.833 49.038 218.437 48.714C218.053 48.378 217.579 48.21 217.015 48.21C216.451 48.21 215.971 48.372 215.575 48.696C215.179 49.02 214.909 49.428 214.765 49.92Z" fill="#333A4A"/>
<path d="M3.38953 2H256.61V-2H3.38953V2ZM258 3.38953V96.6105H262V3.38953H258ZM256.61 98H3.38952V102H256.61V98ZM2 96.6105V3.38953H-2V96.6105H2ZM3.38952 98C2.62211 98 2 97.3779 2 96.6105H-2C-2 99.587 0.412951 102 3.38952 102V98ZM258 96.6105C258 97.3779 257.378 98 256.61 98V102C259.587 102 262 99.587 262 96.6105H258ZM256.61 2C257.378 2 258 2.6221 258 3.38953H262C262 0.412987 259.587 -2 256.61 -2V2ZM3.38953 -2C0.412977 -2 -2 0.412973 -2 3.38953H2C2 2.62211 2.62211 2 3.38953 2V-2Z" fill="#333A4A"/>
<defs>
<filter id="filter0_d" x="28.7705" y="33.75" width="53.354" height="35.75" filterUnits="userSpaceOnUse" color-interpolation-filters="sRGB">
<feFlood flood-opacity="0" result="BackgroundImageFix"/>
<feColorMatrix in="SourceAlpha" type="matrix" values="0 0 0 0 0 0 0 0 0 0 0 0 0 0 0 0 0 0 127 0" result="hardAlpha"/>
<feOffset dx="3.25" dy="3.25"/>
<feColorMatrix type="matrix" values="0 0 0 0 0.2 0 0 0 0 0.227451 0 0 0 0 0.290196 0 0 0 1 0"/>
<feBlend mode="normal" in2="BackgroundImageFix" result="effect1_dropShadow"/>
<feBlend mode="normal" in="SourceGraphic" in2="effect1_dropShadow" result="shape"/>
</filter>
</defs>
</svg>
